dist/images/FB.svg

<svg width="28" height="28" viewBox="0 0 28 28" fill="none" xmlns="http://www.w3.org/2000/svg">
<rect x="0.358154" y="0.355224" width="26.9271" height="26.9271" rx="13.4636" stroke="#FAF8EF" stroke-width="0.716308"/>
<path d="M17.2048 14.7177L17.5987 12.2152H15.1725V10.5886C15.1725 9.90431 15.5113 9.23568 16.5943 9.23568H17.713V7.10466C17.0615 7.00078 16.4033 6.9446 15.7436 6.93652C13.7467 6.93652 12.443 8.13694 12.443 10.3071V12.2152H10.2295V14.7177H12.443V20.7705H15.1725V14.7177H17.2048Z" fill="#FAF8EF"/>
</svg>

<svg width="28" height="28" viewBox="0 0 28 28" fill="none" xmlns="http://www.w3.org/2000/svg"><rect x=".358" y=".355" width="26.927" height="26.927" rx="13.464" stroke="#FAF8EF" stroke-width=".716"/><path d="M17.205 14.718l.394-2.503h-2.427V10.59c0-.685.34-1.353 1.422-1.353h1.119V7.105c-.652-.104-1.31-.16-1.97-.168-1.996 0-3.3 1.2-3.3 3.37v1.908H10.23v2.503h2.213v6.052h2.73v-6.052h2.032z" fill="#FAF8EF"/></svg>
